COLOR/action 16/16/format-text-direction-horizontal.svg

<svg height="16" viewBox="0 0 16 16" width="16" xmlns="http://www.w3.org/2000/svg"><g transform="matrix(1.0454545 0 0 1.0648148 -.545455 -8.861111)"><path d="m7.2771747 9.2608695c.3183865.7155283.6283068 1.4513105.9284986 2.2065895.2910958.745342.5911873 1.535054.9004756 2.369837.3001924.834784.6101129 1.724719.9284991 2.668818.318386.944099.654059 1.972148 1.008831 3.08519h-2.2100883c-.1000639-.357763-.2105469-.724738-.3288043-1.102377-.1273548-.37764-.2497792-.75592-.3680367-1.13356h-3.6841034l-.3549595 1.13356c-.1273542.377639-.2399502.744614-.3400139 1.102377h-2.2792115c.354772-1.113042.6904461-2.141091 1.008832-3.08519s.6322867-1.834034.9415752-2.668818c.3001929-.834783.6021505-1.624495.9023444-2.369837.3001928-.755279.6042644-1.4910612.9135529-2.2065895zm-.9677311 2.3404895c-.05458.149068-.1276126.352416-.2185798.610801-.090965.258385-.1956001.557221-.3138587.895109-.1273542.337888-.2596096.709597-.3960603 1.117052-.1364497.407454-.2785334.834928-.4240825 1.282133h2.688349c-.1455481-.447205-.2857635-.874679-.4222146-1.282133-.1455474-.407455-.2778024-.779164-.3960598-1.117052-.1182587-.337888-.2228923-.636724-.3138587-.895109-.0909658-.258385-.1581487-.461733-.2036346-.610801z" fill="#1a7fd4" stroke-width=".846263"/><path d="m-10.188244 31.164998v1.773913h12.814345v-1.773913z" fill="#e95420" stroke-width="1.191941" transform="matrix(1.0450245 0 0 1.0588235 12.12522675586 -12.46779697611)"/><g fill="#c43ac4" stroke-width="1.010213" transform="matrix(.94685108413 0 0 .7866147805 14.21815793344 -3.02798100303)"><path d="m-2.3426671 15.622451v4.040853l3.03064061-2.020426z"/><path d="m-2.3426671 24.714372v4.040854l3.03064061-2.020427z"/><path d="m-2.3426671 20.168411v4.040855l3.03064061-2.020428z"/></g><g stroke-width=".846263"><path d="m14.445483 10.614538.424083.234783-2.804178 1.5536-.06539-.03485v-.39803zm-8.1360394.517255c.045486.149068.1126688.352417.2036346.610802.090966.258385.1956.557221.3138587.895109.1182574.337888.2505124.709596.3960598 1.117051.1364511.407454.2766665.834929.4222146 1.282134h-.1550611c-.0898865-.274194-.1806891-.554378-.2671535-.812568-.1455474-.407455-.2778024-.779164-.3960598-1.117052-.1182587-.337888-.2228923-.636724-.3138587-.895109-.0909658-.258385-.1581487-.461733-.2036346-.610801-.0545803.149068-.1276126.352416-.2185798.610801-.0909671.258385-.1956001.557221-.3138587.895109-.1273542.337888-.2596096.709597-.3960603 1.117052-.0864848.258252-.1785625.538304-.2690217.812568h-.1550608c.1455491-.447205.2876328-.87468.4240825-1.282134.1364507-.407455.2687061-.779163.3960603-1.117051.1182586-.337888.2228887-.636724.3138587-.895109.0909662-.258385.1639995-.461734.2185798-.610802zm8.1360394 3.059511.424083.234783-2.804178 1.553601-.06539-.03669v-.39803zm-6.3089333 2.694498c.1182575.37764.240682.75592.3680367 1.13356.1182575.377638.2287404.744615.3288043 1.102377h2.0568953c.05311.165437.09921.300197.153193.469565h-2.2100883c-.1000639-.357763-.2105469-.724738-.3288043-1.102377-.1273548-.37764-.2497792-.75592-.3680367-1.13356h-3.6841034l-.3549595 1.13356c-.1273542.377639-.2399502.744614-.3400139 1.102377h-2.2792115c.0539851-.169368.1000866-.304128.1531927-.469565h2.1260188c.1000646-.357762.2126597-.724739.3400139-1.102377l.3549595-1.13356zm6.3089333.882269.424083.234783-2.869565 1.58845v-.469565zm.424083 4.17106v.469565h-13.3913046v-.469565z" opacity=".2"/><path d="m12.000001 9.2608695 2.869565 1.5884515-.424083.234782-2.445482-1.3536682zm-4.7228263 0c.3183865.7155283.6283068 1.4513105.9284986 2.2065895.2910958.745342.5911873 1.535054.9004756 2.369837.3001924.834784.6101129 1.724719.9284991 2.668818.318386.944099.654059 1.972148 1.008831 3.08519h-.153193c-.295895-.921764-.5857-1.815187-.855638-2.615624-.3183862-.9441-.6283067-1.834035-.9284991-2.668818-.3092884-.834784-.6093799-1.624495-.9004756-2.369837-.3001918-.75528-.6101121-1.491062-.9284986-2.2065902h-2.0326088c-.3092885.7155282-.6133601 1.4513102-.9135529 2.2065902-.3001939.745342-.6021506 1.535053-.9023444 2.369837-.3092885.834783-.6231893 1.724718-.9415752 2.668818-.2699381.800437-.5597441 1.69386-.8556393 2.615624h-.1531927c.354772-1.113042.6904461-2.141091 1.008832-3.08519.318385-.944099.6322877-1.834034.9415752-2.668818.3001929-.834783.6021505-1.624495.9023444-2.369837.3001928-.755279.6042644-1.4910612.9135529-2.2065895zm4.7882133 3.6116165 2.804178 1.553601-.424083.234783-2.445482-1.353669v-.39803zm-4.5752378 2.633968c.051965.158516.1017419.305739.1550611.469565h-2.688349c.053297-.163758.1027993-.311113.1550608-.469565zm4.5752378.942799 2.804178 1.553601-.424083.234782-2.445482-1.355503v-.39803zm2.804178 4.081182v.469565h-13.3913046v-.469565z" fill="#fff" opacity=".3"/></g></g></svg>

<?xml version="1.0" encoding="UTF-8" standalone="no"?>
<svg
   xmlns:dc="http://purl.org/dc/elements/1.1/"
   xmlns:cc="http://creativecommons.org/ns#"
   xmlns:rdf="http://www.w3.org/1999/02/22-rdf-syntax-ns#"
   xmlns:svg="http://www.w3.org/2000/svg"
   xmlns="http://www.w3.org/2000/svg"
   xmlns:sodipodi="http://sodipodi.sourceforge.net/DTD/sodipodi-0.dtd"
   xmlns:inkscape="http://www.inkscape.org/namespaces/inkscape"
   viewBox="0 0 16 16"
   version="1.1"
   id="svg26"
   sodipodi:docname="format-text-direction-r2l.svg"
   inkscape:version="0.92.4 (5da689c313, 2019-01-14)"
   width="16"
   height="16">
  <metadata
     id="metadata32">
    <rdf:RDF>
      <cc:Work
         rdf:about="">
        <dc:format>image/svg+xml</dc:format>
        <dc:type
           rdf:resource="http://purl.org/dc/dcmitype/StillImage" />
        <dc:title></dc:title>
      </cc:Work>
    </rdf:RDF>
  </metadata>
  <defs
     id="defs30" />
  <sodipodi:namedview
     pagecolor="#ffffff"
     bordercolor="#666666"
     borderopacity="1"
     objecttolerance="10"
     gridtolerance="10"
     guidetolerance="10"
     inkscape:pageopacity="0"
     inkscape:pageshadow="2"
     inkscape:window-width="1920"
     inkscape:window-height="1016"
     id="namedview28"
     showgrid="true"
     inkscape:zoom="43.560137"
     inkscape:cx="12"
     inkscape:cy="9.4772472"
     inkscape:window-x="0"
     inkscape:window-y="27"
     inkscape:window-maximized="1"
     inkscape:current-layer="g24">
    <inkscape:grid
       type="xygrid"
       id="grid820" />
  </sodipodi:namedview>
  <g
     transform="matrix(1.0454545,0,0,1.0648148,-0.545455,-8.861111)"
     id="g24">
    <path
       style="fill:#1a7fd4;stroke-width:0.84626257"
       d="m 7.2771747,9.2608695 c 0.3183865,0.7155283 0.6283068,1.4513105 0.9284986,2.2065895 0.2910958,0.745342 0.5911873,1.535054 0.9004756,2.369837 0.3001924,0.834784 0.6101129,1.724719 0.9284991,2.668818 0.318386,0.944099 0.654059,1.972148 1.008831,3.08519 H 8.8333907 C 8.7333268,19.233541 8.6228438,18.866566 8.5045864,18.488927 8.3772316,18.111287 8.2548072,17.733007 8.1365497,17.355367 H 4.4524463 l -0.3549595,1.13356 C 3.9701326,18.866566 3.8575366,19.233541 3.7574729,19.591304 H 1.4782614 c 0.354772,-1.113042 0.6904461,-2.141091 1.008832,-3.08519 C 2.8054793,15.562015 3.1193801,14.67208 3.4286686,13.837296 3.7288615,13.002513 4.0308191,12.212801 4.331013,11.467459 4.6312058,10.71218 4.9352774,9.9763978 5.2445659,9.2608695 Z M 6.3094436,11.601359 c -0.05458,0.149068 -0.1276126,0.352416 -0.2185798,0.610801 -0.090965,0.258385 -0.1956001,0.557221 -0.3138587,0.895109 -0.1273542,0.337888 -0.2596096,0.709597 -0.3960603,1.117052 -0.1364497,0.407454 -0.2785334,0.834928 -0.4240825,1.282133 h 2.688349 C 7.4996632,15.059249 7.3594478,14.631775 7.2229967,14.224321 7.0774493,13.816866 6.9451943,13.445157 6.8269369,13.107269 6.7086782,12.769381 6.6040446,12.470545 6.5130782,12.21216 6.4221124,11.953775 6.3549295,11.750427 6.3094436,11.601359 Z"
       id="path2"
       inkscape:connector-curvature="0"
       sodipodi:nodetypes="cccsccccccccscccccscccccccc" />
    <g
       transform="matrix(1.0450245,0,0,1.0588235,14.150618,-13.72526)"
       id="g22">
      <g
         transform="translate(-1.938128,1.187604)"
         id="g12"
         style="fill:#e95420">
        <path
           d="m -10.188244,31.164998 v 1.773913 H 2.626101 v -1.773913 z"
           id="path4"
           inkscape:connector-curvature="0"
           style="stroke-width:1.19194055" />
      </g>
      <g
         id="g20"
         style="fill:#c43ac4;stroke-width:1.01021302"
         transform="matrix(0.90605635,0,0,0.74291398,0.06463023,10.102986)">
        <path
           d="m -2.3426671,15.622451 v 4.040853 l 3.03064061,-2.020426 z"
           id="path14"
           inkscape:connector-curvature="0" />
        <path
           d="m -2.3426671,24.714372 v 4.040854 l 3.03064061,-2.020427 z"
           id="path16"
           inkscape:connector-curvature="0" />
        <path
           d="m -2.3426671,20.168411 v 4.040855 l 3.03064061,-2.020428 z"
           id="path18"
           inkscape:connector-curvature="0" />
      </g>
    </g>
    <g
       id="g834"
       transform="matrix(1.0450245,0,0,1.0588235,14.150618,-13.72526)">
      <g
         style="fill:#e95420"
         id="g824"
         transform="translate(-1.938128,1.187604)" />
      <g
         transform="matrix(0.90605635,0,0,0.74291398,0.06463023,10.102986)"
         style="fill:#c43ac4;stroke-width:1.01021302"
         id="g832" />
    </g>
    <path
       style="opacity:0.2;fill:#000000;fill-opacity:1;stroke-width:0.84626257"
       d="m 14.445483,10.614538 0.424083,0.234783 -2.804178,1.5536 -0.06539,-0.03485 v -0.39803 z m -8.1360394,0.517255 c 0.045486,0.149068 0.1126688,0.352417 0.2036346,0.610802 0.090966,0.258385 0.1956,0.557221 0.3138587,0.895109 0.1182574,0.337888 0.2505124,0.709596 0.3960598,1.117051 0.1364511,0.407454 0.2766665,0.834929 0.4222146,1.282134 H 7.4901502 C 7.4002637,14.762695 7.3094611,14.482511 7.2229967,14.224321 7.0774493,13.816866 6.9451943,13.445157 6.8269369,13.107269 6.7086782,12.769381 6.6040446,12.470545 6.5130782,12.21216 6.4221124,11.953775 6.3549295,11.750427 6.3094436,11.601359 6.2548633,11.750427 6.181831,11.953775 6.0908638,12.21216 5.9998967,12.470545 5.8952637,12.769381 5.7770051,13.107269 5.6496509,13.445157 5.5173955,13.816866 5.3809448,14.224321 5.29446,14.482573 5.2023823,14.762625 5.1119231,15.036889 H 4.9568623 C 5.1024114,14.589684 5.2444951,14.162209 5.3809448,13.754755 5.5173955,13.3473 5.6496509,12.975592 5.7770051,12.637704 5.8952637,12.299816 5.9998938,12.00098 6.0908638,11.742595 6.18183,11.48421 6.2548633,11.280861 6.3094436,11.131793 Z m 8.1360394,3.059511 0.424083,0.234783 -2.804178,1.553601 -0.06539,-0.03669 v -0.39803 z m -6.3089333,2.694498 c 0.1182575,0.37764 0.240682,0.75592 0.3680367,1.13356 0.1182575,0.377638 0.2287404,0.744615 0.3288043,1.102377 h 2.0568953 c 0.05311,0.165437 0.09921,0.300197 0.153193,0.469565 H 8.8333907 C 8.7333268,19.233541 8.6228438,18.866566 8.5045864,18.488927 8.3772316,18.111287 8.2548072,17.733007 8.1365497,17.355367 H 4.4524463 l -0.3549595,1.13356 C 3.9701326,18.866566 3.8575366,19.233541 3.7574729,19.591304 H 1.4782614 C 1.5322465,19.421936 1.578348,19.287176 1.6314541,19.121739 H 3.7574729 C 3.8575375,18.763977 3.9701326,18.397 4.0974868,18.019362 l 0.3549595,-1.13356 z m 6.3089333,0.882269 0.424083,0.234783 -2.869565,1.58845 v -0.469565 z m 0.424083,4.17106 v 0.469565 H 1.4782614 v -0.469565 z"
       id="path837"
       inkscape:connector-curvature="0" />
    <path
       style="opacity:0.3;fill:#ffffff;fill-opacity:1;stroke-width:0.84626257"
       d="m 12.000001,9.2608695 2.869565,1.5884515 -0.424083,0.234782 -2.445482,-1.3536682 z m -4.7228263,0 c 0.3183865,0.7155283 0.6283068,1.4513105 0.9284986,2.2065895 0.2910958,0.745342 0.5911873,1.535054 0.9004756,2.369837 0.3001924,0.834784 0.6101129,1.724719 0.9284991,2.668818 0.318386,0.944099 0.654059,1.972148 1.008831,3.08519 H 10.890286 C 10.594391,18.66954 10.304586,17.776117 10.034648,16.97568 9.7162618,16.03158 9.4063413,15.141645 9.1061489,14.306862 8.7968605,13.472078 8.496769,12.682367 8.2056733,11.937025 7.9054815,11.181745 7.5955612,10.445963 7.2771747,9.7304348 H 5.2445659 C 4.9352774,10.445963 4.6312058,11.181745 4.331013,11.937025 4.0308191,12.682367 3.7288624,13.472078 3.4286686,14.306862 3.1193801,15.141645 2.8054793,16.03158 2.4870934,16.97568 2.2171553,17.776117 1.9273493,18.66954 1.6314541,19.591304 H 1.4782614 c 0.354772,-1.113042 0.6904461,-2.141091 1.008832,-3.08519 C 2.8054784,15.562015 3.1193811,14.67208 3.4286686,13.837296 3.7288615,13.002513 4.0308191,12.212801 4.331013,11.467459 4.6312058,10.71218 4.9352774,9.9763978 5.2445659,9.2608695 Z m 4.7882133,3.6116165 2.804178,1.553601 -0.424083,0.234783 -2.445482,-1.353669 v -0.39803 z m -4.5752378,2.633968 c 0.051965,0.158516 0.1017419,0.305739 0.1550611,0.469565 h -2.688349 c 0.053297,-0.163758 0.1027993,-0.311113 0.1550608,-0.469565 z m 4.5752378,0.942799 2.804178,1.553601 -0.424083,0.234782 -2.445482,-1.355503 v -0.39803 z m 2.804178,4.081182 V 21 H 1.4782614 v -0.469565 z"
       id="path841"
       inkscape:connector-curvature="0" />
  </g>
</svg>
